!!!COM: Corelli, Arcangelo
!!!OPR: Sonata da camera
!!!OPS: 4
!!!ONM: 8
!!!OMV: 1
!!!OTL: Preludio
!!!OMD: Grave
**kern	**fb	**kern	**kern
*part3	*part3	*part2	*part1
*staff3	*	*staff2	*staff1
*I"Violone & Cembalo	*	*I"Violino II	*I"Violino I
*clefF4	*	*clefG2	*clefG2
*k[]	*	*k[]	*k[]
*d:	*	*d:	*d:
*M3/2	*	*M3/2	*M3/2
*MM132	*	*MM132	*MM132
=1	=1	=1	=1
1.r	.	1.r	2d
.	.	.	2f
.	.	.	2a
=2	=2	=2	=2
1.r	.	2d	1dd
.	.	2f	.
.	.	2a	2cc#X
=3	=3	=3	=3
2D	.	1dd	1ff
2F	6	.	.
2A	#	2cc#X	[2ee
=4	=4	=4	=4
1d	9	1ff	2ee]
.	8	.	2dd
*g:	*	*g:	*g:
2F#X	#5\	[2a	2cc
=5	=5	=5	=5
1G	9 -	2a]	1b-X
.	8	2d	.
*d:	*	*d:	*d:
2C#X	6	2e	[2a
=6	=6	=6	=6
2D	.	2f	2a]
1BB-X	6	1d	1g
=7	=7	=7	=7
2AA	#	1.c#X	1a
2A	.	.	.
2G	.	.	[2ee
=8	=8	=8	=8
1F	7	1r	2ee]
.	6	.	(4dd
.	.	.	4ee)
2D	.	[2aa	2ff
=9	=9	=9	=9
*a:	*	*a:	*a:
1E	5 4	2aa]	[1.b
.	#	(4gg#X	.
.	.	4aa)	.
2D	6	2bb	.
=10	=10	=10	=10
1C	7	[1.ee	2b]
.	6	.	(4a
.	.	.	4b)
2C	.	.	2cc
=11	=11	=11	=11
1D	9	2ee]	2f
.	8	(4dd	2a
.	.	4ee)	.
2D	.	2ff	[2dd
=12	=12	=12	=12
2E	7 #	2g#X	2dd]
2F	5	[1a	2cc
2D	6 5	.	2b
=13	=13	=13	=13
2E	6 4	2a]	2cc
1EE	5 4	2.a	1b
.	#	4g#X	.
=14	=14	=14	=14
1.AA	.	1.a	2a
.	.	.	2.ee
.	.	.	4ee
=15	=15	=15	=15
1.r	.	2r	2aa
.	.	2.ee	2.gg
.	.	4ee	4aa
=16	=16	=16	=16
2r	.	2aa	2ff
*d:	*	*d:	*d:
2.A	7 #	2.gg	1ee
4A	.	4aa	.
=17	=17	=17	=17
2d	.	2ff	2r
*g:	*	*g:	*g:
2.c	6 #4|	2.ff#X	2.aa
4d	.	4ff#	4aa
=18	=18	=18	=18
2B-X	6	2gg	1.dd
*F:	*	*F:	*F:
2.Bn	-r5	2.ffni	.
4B	.	4gg	.
=19	=19	=19	=19
2c	.	2ee	2r
2.B-X	6 4	2.ee	2.gg
4c	.	4ee	4gg
=20	=20	=20	=20
2A	6	2ff	[1.cc
2E	6	2gg	.
2F	.	2aa	.
=21	=21	=21	=21
2BB-X	9	2dd	2cc]
2C	-7	2ee	2b-X
2D	5	[2ff	[2a
=22	=22	=22	=22
2BB-X	7 5	2ff]	2a]
1C	5 4	2.ff	1g
.	3	4ee	.
=23	=23	=23	=23
1FF	5	1.ff	2f
.	6	.	[1dd
*d:	*	*d:	*d:
2F	.	.	.
=24	=24	=24	=24
2G	-	2r	2dd]
2A	#	[1ee	(4cc#X
.	.	.	4dd)
2AA	.	.	2ee
=25	=25	=25	=25
1D	9	2ee]	[1.ff
.	8	(4dd	.
.	.	4ee)	.
2d	.	2ff	.
=26	=26	=26	=26
1G	7 -	[1.b-X	2ff]
.	6	.	(4ee
.	.	.	4ff)
2G	5	.	2gg
=27	=27	=27	=27
1A	-9 #	2b-]	2cc#X
.	8 4	2a	2dd
2C#X	5	2g	[2ee
=28	=28	=28	=28
1D	9 3	2f#X	2ee]
.	8 4	2g	2dd
*g:	*	*g:	*g:
2FF#X	-r5	[2a	2ccni
=29	=29	=29	=29
1GG	9 -	2a]	1b-X
.	8	2d	.
2GG	.	[2g	2b-
=30	=30	=30	=30
*d:	*	*d:	*d:
2AA	7 #	2g]	2c#X
2BB-X	5	2f	[1d
2GG	6 5	2e	.
=31	=31	=31	=31
2AA	6 4	2f	2d]
1AA	5 4	1e	2.d
.	#	.	4c#X
=32	=32	=32	=32
2D	#	1.d	2d
*g:	*	*g:	*g:
2F#X	6	.	2.dd
2D	.	.	.
.	.	.	4ccni
=33	=33	=33	=33
2G	-	2r	2b-X
1F#X	6	2.dd	1a
.	.	4cc	.
=34	=34	=34	=34
2G	-	2b-X	2r
2F#X	6	1a	2.dd
2D	.	.	.
.	.	.	4cc
=35	=35	=35	=35
2G	.	2r	2b-X
1F#X	6	2.dd	1a
.	.	4cc	.
=36	=36	=36	=36
1GG	-	1b-X	1d
*d:	*	*d:	*d:
[2AA	#	[2a	[2c#X
=37	=37	=37	=37
2AA]	.	2a]	2c#]
1BB-X	6	1g	1d
=38	=38	=38	=38
1.AA;	#	1.a;	1.c#X;
==	==	==	==
*-	*-	*-	*-
!!!system-decoration: [{s1,s2},s3]
!!!YEM: CC BY-NC-SA 4.0; CCARH; DCML
!!!RDF**kern: i = editorial accidental